icons/mortar-board-16.svg

<svg width="16" height="16" viewBox="0 0 16 16" fill="none" xmlns="http://www.w3.org/2000/svg">
<path fill-rule="evenodd" clip-rule="evenodd" d="M7.69321 1.06562C7.88838 0.978127 8.11162 0.978127 8.30679 1.06562L15.5568 4.31562C15.8265 4.4365 16 4.70448 16 5C16 5.29552 15.8265 5.5635 15.5568 5.68438L13 6.83053V9.625C13 10.6489 12.1894 11.374 11.3406 11.7984C10.4469 12.2453 9.26479 12.5 8 12.5C7.72205 12.5 7.44922 12.4877 7.1835 12.4641C6.77091 12.4273 6.46623 12.0631 6.50295 11.6505C6.53969 11.2379 6.90392 10.9332 7.31651 10.97C7.53769 10.9897 7.76613 11 8 11C9.08242 11 10.0253 10.779 10.6698 10.4568C11.3592 10.1121 11.5 9.77468 11.5 9.625V7.50294L8.30679 8.93438C8.11162 9.02187 7.88838 9.02187 7.69321 8.93438L4 7.27881V8.94167C4.29604 9.04701 4.57477 9.21725 4.81159 9.45407C5.24974 9.89223 5.5 10.5128 5.5 11.25V14.25C5.5 14.449 5.42098 14.6397 5.28032 14.7804C5.13966 14.921 4.94889 15.0001 4.74997 15L1.74997 14.9999C1.33577 14.9999 1 14.6641 1 14.2499V11.2499C1 10.5128 1.25027 9.89215 1.68843 9.45401C1.92524 9.2172 2.20396 9.04698 2.5 8.94165V6.60639L0.443208 5.68438C0.173541 5.5635 0 5.29552 0 5C0 4.70448 0.173541 4.4365 0.443208 4.31562L7.69321 1.06562ZM2.58349 5L8 7.42809L13.4165 5L8 2.57191L2.58349 5ZM2.5 11.2499C2.5 10.8621 2.62473 10.639 2.74907 10.5147C2.88047 10.3833 3.06051 10.3125 3.24999 10.3125C3.43947 10.3125 3.61951 10.3833 3.75091 10.5147C3.87526 10.6391 4 10.8622 4 11.25V13.5H2.5V11.2499Z" fill="#24292F"/>
</svg>

<svg xmlns="http://www.w3.org/2000/svg" width="16" height="16" viewBox="0 0 16 16"><path d="M7.693 1.066a.747.747 0 0 1 .614 0l7.25 3.25a.75.75 0 0 1 0 1.368L13 6.831v2.794c0 1.024-.81 1.749-1.66 2.173-.893.447-2.075.702-3.34.702-.278 0-.55-.012-.816-.036a.75.75 0 0 1 .133-1.494c.22.02.45.03.683.03 1.082 0 2.025-.221 2.67-.543.69-.345.83-.682.83-.832V7.503L8.307 8.934a.747.747 0 0 1-.614 0L4 7.28v1.663c.296.105.575.275.812.512.438.438.688 1.059.688 1.796v3a.75.75 0 0 1-.75.75h-3a.75.75 0 0 1-.75-.75v-3c0-.737.25-1.358.688-1.796.237-.237.516-.407.812-.512V6.606L.443 5.684a.75.75 0 0 1 0-1.368ZM2.583 5 8 7.428 13.416 5 8 2.572ZM2.5 11.25v2.25H4v-2.25c0-.388-.125-.611-.25-.735a.697.697 0 0 0-.5-.203.707.707 0 0 0-.5.203c-.125.124-.25.347-.25.735Z"/></svg>
